**kern	**kern	**dynam
*part1	*part1	*part1
*staff2	*staff1	*
*I"Piano	*	*
*clefF4	*clefG2	*
*k[b-e-a-d-]	*k[b-e-a-d-]	*
=1	=1	=1
*	*^	*
(4D- 4F-X	(8f-XL	4d-	>
.	8b-	.	.
4E-)	8e-	4d-	]
.	8gJ)	.	.
*	*v	*v	*
=	=	=
4AA-	(8cL 8a-	.
.	8e-	.
4r	8a-	.
.	8b-J)	.
=	=	=
4AA-^ 4E-	4c 4e- 4cc	.
(8AA-'L 8E-	(8c'L 8e- 8a-	.
8AA-'J) 8E-	8c'J) 8e- 8a-	.
=	=	=
4GG^ 4E-	4d- 4e- 4dd-	.
8GGL 8E-	8d-L 8e- 8b-	.
8GGJ 8E-	8d-J 8e- 8b-	.
=	=	=
*	*^	*
4AA-^ 4E-	8ccL	4c 4e-	.
.	8a-	.	.
8AA-L 8E-	8g	8cL 8e-	.
8AA-J 8E-	8a-J	8cJ 8e-	.
*	*v	*v	*
=	=	=
4.EE- 4.E-	4.B- 4.e- 4.g 4.b-	.
8E-	8e-	.
=	=	=
4AA- 4E-	4c-X 4e- 4cc-X	pp
8AA-L 8E-	8c-L 8e- 8a-	.
8AA-J 8E-	8c-J 8e- 8a-	.
=	=	=
4GG 4E-	4d- 4e- 4dd-	.
8GGL 8E-	8d-L 8e- 8b-	.
8GGJ 8E-	8d-J 8e- 8b-	.
=	=	=
*-	*-	*-
!!!system-decoration: {(s1,s2)}
